public/images/hashed/f1bf1570c9613741437c13372b8145e0.svg

<?xml version="1.0" encoding="UTF-8"?>
<svg width="80px" height="80px" viewBox="0 0 80 80" version="1.1" xmlns="http://www.w3.org/2000/svg" xmlns:xlink="http://www.w3.org/1999/xlink">
    <!-- Generator: Sketch 64 (93537) - https://sketch.com -->
    <title>Icon-Architecture/64/Arch_AWS-Trusted-Advisor_64</title>
    <desc>Created with Sketch.</desc>
    <defs>
        <linearGradient x1="0%" y1="100%" x2="100%" y2="0%" id="linearGradient-1">
            <stop stop-color="#B0084D" offset="0%"></stop>
            <stop stop-color="#FF4F8B" offset="100%"></stop>
        </linearGradient>
    </defs>
    <g id="Icon-Architecture/64/Arch_AWS-Trusted-Advisor_64" stroke="none" stroke-width="1" fill="none" fill-rule="evenodd">
        <g id="Icon-Architecture-BG/64/Management-Governance" fill="url(#linearGradient-1)">
            <rect id="Rectangle" x="0" y="0" width="80" height="80"></rect>
        </g>
        <path d="M32,22.72125 L39,20.38825 L39,42.94825 C33.226,42.42125 32,37.40125 32,36.00025 L32,22.72125 Z M48,36.00025 C48,37.40125 46.774,42.42125 41,42.94825 L41,20.38825 L48,22.72125 L48,36.00025 Z M40,45.00025 C47.556,45.00025 50,38.93725 50,36.00025 L50,22.00025 C50,21.57025 49.725,21.18825 49.316,21.05225 L40.316,18.05225 C40.111,17.98325 39.889,17.98325 39.684,18.05225 L30.684,21.05225 C30.275,21.18825 30,21.57025 30,22.00025 L30,36.00025 C30,38.93725 32.444,45.00025 40,45.00025 L40,45.00025 Z M27,19.75225 L40,15.06325 L53,19.75225 L53,35.00025 C53,38.05025 52.062,48.00025 40,48.00025 C27.147,48.00025 27,35.53125 27,35.00025 L27,19.75225 Z M40,50.00025 C54.276,50.00025 55,37.50525 55,35.00025 L55,19.04925 C55,18.62825 54.735,18.25125 54.339,18.10825 L40.339,13.05925 C40.12,12.98025 39.88,12.98025 39.661,13.05925 L25.661,18.10825 C25.265,18.25125 25,18.62825 25,19.04925 L25,35.00025 C25,40.18825 28.135,50.00025 40,50.00025 L40,50.00025 Z M61.5,58.00025 C60.121,58.00025 59,56.87925 59,55.50025 C59,54.12225 60.121,53.00025 61.5,53.00025 C62.879,53.00025 64,54.12225 64,55.50025 C64,56.87925 62.879,58.00025 61.5,58.00025 L61.5,58.00025 Z M42.5,62.50025 C42.5,63.87925 41.379,65.00025 40,65.00025 C38.621,65.00025 37.5,63.87925 37.5,62.50025 C37.5,61.12225 38.621,60.00025 40,60.00025 C41.379,60.00025 42.5,61.12225 42.5,62.50025 L42.5,62.50025 Z M18.5,58.00025 C17.121,58.00025 16,56.87925 16,55.50025 C16,54.12225 17.121,53.00025 18.5,53.00025 C19.879,53.00025 21,54.12225 21,55.50025 C21,56.87925 19.879,58.00025 18.5,58.00025 L18.5,58.00025 Z M61.5,51.00025 C60.363,51.00025 59.336,51.43825 58.543,52.13525 L55.47,49.05725 C58.645,46.41125 61.371,42.99225 63.34,38.97125 L61.543,38.09125 C57.107,47.14825 48.651,53.00025 40,53.00025 C31.146,53.00025 21.958,46.86925 17.659,38.09125 L15.862,38.97125 C17.581,42.47925 20.281,46.00025 23.722,48.84525 L20.812,51.66025 C20.134,51.25025 19.349,51.00025 18.5,51.00025 C16.019,51.00025 14,53.01925 14,55.50025 C14,57.98225 16.019,60.00025 18.5,60.00025 C20.981,60.00025 23,57.98225 23,55.50025 C23,54.59225 22.725,53.74925 22.261,53.04125 L25.325,50.07725 C29.187,52.85025 33.842,54.73525 39,54.95625 L39,58.12125 C37,58.57825 35.5,60.36425 35.5,62.50025 C35.5,64.98225 37.519,67.00025 40,67.00025 C42.481,67.00025 44.5,64.98225 44.5,62.50025 C44.5,60.36425 43,58.57825 41,58.12125 L41,54.95925 C45.543,54.74425 49.988,53.08525 53.877,50.29325 L57.349,53.76925 C57.125,54.30325 57,54.88725 57,55.50025 C57,57.98225 59.019,60.00025 61.5,60.00025 C63.981,60.00025 66,57.98225 66,55.50025 C66,53.01925 63.981,51.00025 61.5,51.00025 L61.5,51.00025 Z" id="AWS-Trusted-Advisor_Icon_64_Squid" fill="#FFFFFF"></path>
    </g>
</svg>

<svg xmlns="http://www.w3.org/2000/svg" width="80" height="80"><defs><linearGradient id="a" x1="0%" x2="100%" y1="100%" y2="0%"><stop offset="0%" stop-color="#B0084D"/><stop offset="100%" stop-color="#FF4F8B"/></linearGradient></defs><g fill="none" fill-rule="evenodd"><path fill="url(#a)" d="M0 0h80v80H0z"/><path fill="#FFF" d="m32 22.721 7-2.333v22.56c-5.774-.527-7-5.547-7-6.948V22.721Zm16 13.28c0 1.4-1.226 6.42-7 6.947v-22.56l7 2.333v13.28Zm-8 9c7.556 0 10-6.064 10-9V22a.999.999 0 0 0-.684-.949l-9-3a.99.99 0 0 0-.632 0l-9 3A.999.999 0 0 0 30 22v14c0 2.937 2.444 9 10 9ZM27 19.751l13-4.689 13 4.69V35c0 3.05-.938 13-13 13-12.853 0-13-12.469-13-13V19.752ZM40 50c14.276 0 15-12.495 15-15V19.05c0-.422-.265-.799-.661-.942l-14-5.049a1 1 0 0 0-.678 0l-14 5.05c-.396.142-.661.52-.661.94V35c0 5.188 3.135 15 15 15Zm21.5 8a2.502 2.502 0 0 1-2.5-2.5c0-1.378 1.121-2.5 2.5-2.5s2.5 1.122 2.5 2.5c0 1.38-1.121 2.5-2.5 2.5Zm-19 4.5c0 1.38-1.121 2.5-2.5 2.5a2.502 2.502 0 0 1-2.5-2.5c0-1.378 1.121-2.5 2.5-2.5s2.5 1.122 2.5 2.5Zm-24-4.5a2.502 2.502 0 0 1-2.5-2.5c0-1.378 1.121-2.5 2.5-2.5s2.5 1.122 2.5 2.5c0 1.38-1.121 2.5-2.5 2.5Zm43-7a4.465 4.465 0 0 0-2.957 1.135l-3.073-3.078c3.175-2.646 5.901-6.065 7.87-10.086l-1.797-.88C57.107 47.148 48.651 53.001 40 53.001c-8.854 0-18.042-6.132-22.341-14.91l-1.797.88c1.719 3.508 4.419 7.03 7.86 9.874l-2.91 2.815A4.45 4.45 0 0 0 18.5 51a4.505 4.505 0 0 0-4.5 4.5c0 2.482 2.019 4.5 4.5 4.5s4.5-2.018 4.5-4.5c0-.908-.275-1.75-.739-2.459l3.064-2.964c3.862 2.773 8.517 4.658 13.675 4.88v3.164c-2 .457-3.5 2.243-3.5 4.38 0 2.481 2.019 4.5 4.5 4.5s4.5-2.019 4.5-4.5c0-2.137-1.5-3.923-3.5-4.38V54.96c4.543-.215 8.988-1.874 12.877-4.666l3.472 3.476A4.462 4.462 0 0 0 57 55.5c0 2.482 2.019 4.5 4.5 4.5s4.5-2.018 4.5-4.5c0-2.48-2.019-4.5-4.5-4.5Z"/></g></svg>
